!!!!SEGMENT: Mou2010-Lectio_actuum_apostolorum.krn
!!!id: Mou2010
!!!AGN: Motet
!!!SCT: Sherr (1989)
!!!voices: 4
!!!COM: Jean Mouton
!!!OTL: Lectio actuum apostolorum
**kern	**kern	**kern	**kern
*part4	*part3	*part2	*part1
*staff4	*staff3	*staff2	*staff1
*I"Bassus	*I"Tenor	*I"Altus	*I"Superius
*I'B	*I'T	*I'A	*I'S
*clefF4	*clefGv2	*clefG2	*clefG2
*k[b-]	*k[b-]	*k[b-]	*k[b-]
*F:	*F:	*F:	*F:
*M2/1	*M2/1	*M2/1	*M2/1
*met(C|)	*met(C|)	*met(C|)	*met(C|)
!!Section: Prima pars: Lectio actuum apostolorum
!!!OMD: Prima pars: Lectio actuum apostolorum
=1	=1	=1	=1
1.F	0r	1.f	1r
.	.	.	[1cc
2F	.	2f	.
=2	=2	=2	=2
0F	1.c	1.f	2cc]
.	.	.	2cc
.	.	.	[1cc
.	2c	4e	.
.	.	4d	.
=3	=3	=3	=3
1A	0c	2.f	2cc]
.	.	.	2dd
.	.	4g	.
1c	.	1e	1ee
=4	=4	=4	=4
1.B-y	1d	2d	2.ff
.	.	2.f	.
.	.	.	4ee
.	[1f	.	4dd
.	.	4e	4cc
4A	.	4f	[2dd
4G	.	4g	.
=5	=5	=5	=5
1F	2f]	1a	4dd]
.	.	.	4cc
.	2e	.	1cc
1G	1d	2.g	.
.	.	.	2b-y
.	.	4f	.
=6	=6	=6	=6
1.A	0c	4e	1.cc
.	.	4d	.
.	.	2.c	.
.	.	4B-y	.
2G	.	2G	2b-y
=7	=7	=7	=7
1F	1d	1A	1a
2C	2e	2.c	2g
[2F	[2d	.	[2a
.	.	4B-y	.
=8	=8	=8	=8
4F]	4d]	4A	2a]
4E	4c	4G	.
2C	1c	1G	4g
.	.	.	4a
1D	.	.	4b-y
.	.	.	4a
.	2Bni	2F	4g
.	.	.	4f
=9	=9	=9	=9
1C	0c	1G	1e
2r	.	2r	2r
2C	.	2c	2g
=10	=10	=10	=10
1C	1r	1.c	1g
1F	2r	.	1a
.	2c	2d	.
=11	=11	=11	=11
1C	1c	1e	2g
.	.	.	2a
1G	1B-y	1d	4g
.	.	.	4f
.	.	.	2g
=12	=12	=12	=12
2.F	1A	1f	2.a
4D	.	.	4f
2E	1c	2r	2g
2F	.	2f	2a
=13	=13	=13	=13
2G	2B-y	2d	2b-y
2E	2.c	2e	2g
2.F	.	2c	2.a
.	4B-y	.	.
.	4A	2d	.
4G	4G	.	4b-y
=14	=14	=14	=14
4E	2B-y	2e	2g
4D	.	.	.
2F	2A	2c	1f
1C	1G	1c	.
.	.	.	2e
=15	=15	=15	=15
[0F	[0F	0c	1f
.	.	.	1r
=16	=16	=16	=16
0F]	0F]	1r	0cc
.	.	[1f	.
=17	=17	=17	=17
0r	0r	1f]	1cc
.	.	1f	1a
=18	=18	=18	=18
0r	0r	1d	1b-y
.	.	1e	1cc
=19	=19	=19	=19
[0F	0c	0f	2cc
.	.	.	1ff
.	.	.	4ee
.	.	.	4dd
=20	=20	=20	=20
1F]	1c	1r	1cc
1F	1A	1c	1r
=21	=21	=21	=21
1D	1B-y	1d	1ff
1E	[1c	1g	1ee
=22	=22	=22	=22
0F	1c]	0f	1cc
.	1r	.	2cc
.	.	.	[2dd
=23	=23	=23	=23
1r	1f	1B-y	4dd]
.	.	.	4cc
.	.	.	4b-y
.	.	.	4a
1c	1e	1c	1g
=24	=24	=24	=24
1A	1c	4c	1a
.	.	4d	.
.	.	4e	.
.	.	4f	.
1G	1d	1g	1b-y
=25	=25	=25	=25
2A	2c	1f	2a
2.B-y	2.d	.	2f
.	.	2d	2b-y
4A	4c	.	.
2F	2A	2f	[2cc
=26	=26	=26	=26
2A	2c	2e	4cc]
.	.	.	4b-y
2F	2d	1d	1a
1G	1B-y	.	.
.	.	2c	2g
=27	=27	=27	=27
[0D	0A	1d	0a
.	.	2r	.
.	.	2d	.
=28	=28	=28	=28
1D]	2r	1f	0r
.	2A	.	.
1r	1c	1g	.
=29	=29	=29	=29
0r	1d	1f	1a
.	1c	2r	1cc
.	.	2e	.
=30	=30	=30	=30
1D	2r	2f	1dd
.	2.A	2.a	.
1F	.	.	2cc
.	4B-y	4g	.
.	[2c	[2f	2a
=31	=31	=31	=31
1G	2c]	2f]	1b-y
.	2B-y	2e	.
1F	1c	1f	1a
=32	=32	=32	=32
2r	2r	2r	2r
2F	2c	2f	2a
2BB-y	2d	2f	2b-y
2BB-y	2d	2f	2b-y
=33	=33	=33	=33
1F	0c	1f	0a
[1F	.	[1f	.
=34	=34	=34	=34
2F]	1.c	2f]	1.a
2F	.	2f	.
1F	.	1f	.
.	2c	.	2a
=35	=35	=35	=35
2r	1c	2r	1a
2F	.	2f	.
1G	1r	2d	2r
.	.	[2g	2b-y
=36	=36	=36	=36
2E	2r	2g]	2g
1F	2c	2.f	1a
.	1d	.	.
.	.	4e	.
[2G	.	4d	[2b-y
.	.	4c	.
=37	=37	=37	=37
4G]	2B-y	2d	4b-]
4F	.	.	4a
4E	2.c	2.e	4g
4D	.	.	4f
2C	.	.	2g
.	4B-y	4d	.
[2F	4A	[2c	[2a
.	4G	.	.
=38	=38	=38	=38
2F]	2A	4c]	4a]
.	.	4B-y	4g
2BB-y	2B-y	2d	1f
1C	1G	[1c	.
.	.	.	2e
=39	=39	=39	=39
1F	0F	1c]	0f
1r	.	1r	.
=40	=40	=40	=40
0F	1r	0c	1r
.	1A	.	1cc
=41	=41	=41	=41
1.G	1.d	1.g	1.b-y
2C	2c	2c	2cc
=42	=42	=42	=42
0C	0c	0c	1cc
.	.	.	2r
.	.	.	2cc
=43	=43	=43	=43
0r	2r	0r	2dd
.	2c	.	2ee
.	2d	.	[1ff
.	2e	.	.
=44	=44	=44	=44
0r	1.f	0r	2ff]
.	.	.	2ee
.	.	.	2dd
.	2e	.	2cc
=45	=45	=45	=45
1r	2d	0r	2b-y
.	2c	.	1cc
2r	1d	.	.
2G	.	.	2bni
=46	=46	=46	=46
2A	1c	1r	1cc
2B-y	.	.	.
2.c	1r	2r	1r
.	.	2e	.
4B-y	.	.	.
=47	=47	=47	=47
2A	0r	2f	0r
2G	.	1g	.
2r	.	.	.
2D	.	2f	.
=48	=48	=48	=48
2E	0r	2e	0r
2F	.	2.d	.
2.G	.	.	.
.	.	4c	.
.	.	4B-y	.
4F	.	4A	.
=49	=49	=49	=49
4E	0r	2G	0r
4D	.	.	.
2.F	.	2.d	.
4E	.	4c	.
4D	.	[2c	.
4C	.	.	.
=50	=50	=50	=50
1D	0r	2c]	0r
.	.	2Bni	.
1C	.	1c	.
=51	=51	=51	=51
2r	1c	2r	0r
1F	.	2.A	.
.	1d	.	.
.	.	4G	.
2D	.	2B-y	.
=52	=52	=52	=52
1E	1B-y	1G	1r
1F	1A	2F	1a
.	.	2f	.
=53	=53	=53	=53
1r	1r	2d	1b-y
.	.	2.g	.
1E	2r	.	1g
.	.	4f	.
.	2G	4e	.
.	.	4d	.
=54	=54	=54	=54
1F	2A	2c	1f
.	1c	1f	.
1D	.	.	1r
.	2Bni	4e	.
.	.	4d	.
=55	=55	=55	=55
1C	1c	1e	2r
.	.	.	2cc
1F	2r	2r	2cc
.	2f	2A	2cc
=56	=56	=56	=56
2.F	2f	2.A	2.cc
.	2.f	.	.
4E	.	4B-y	4dd
2C	.	2c	4ee
.	4e	.	4cc
2D	2d	2A	[2ff
=57	=57	=57	=57
2F	2c	2A	4ff]
.	.	.	4ee
2G	2B-y	2B-y	2dd
2A	2A	2c	2cc
[2G	[2d	2d	[2b-y
=58	=58	=58	=58
4G]	4d]	2G	4b-]
4A	4c	.	4g
2F	2A	2d	1a
1G	1B-y	2.d	.
.	.	.	2g
.	.	4e	.
=59	=59	=59	=59
2D	2r	2.f	2.a
1F	2A	.	.
.	.	4e	4g
.	2.c	4c	4f
.	.	4d	4e
2E	.	2e	[2g
.	4B-y	.	.
=60	=60	=60	=60
2F	2A	0c	4g]
.	.	.	4f
4E	4G	.	1f
4D	4F	.	.
1C	1G	.	.
.	.	.	2e
=61	=61	=61	=61
1F	0F	1c	1f
1r	.	2r	2r
.	.	[2c	2cc
=62	=62	=62	=62
1F	1r	4c]	1dd
.	.	4B-y	.
.	.	2.A	.
1E	1c	.	1ee
.	.	4G	.
.	.	[2G	.
=63	=63	=63	=63
1D	1d	2G]	1ff
.	.	2F	.
2C	1e	2G	2ee
[2c	.	2A	2cc
=64	=64	=64	=64
2c]	1f	2F	1dd
2B-y	.	2d	.
2c	2e	2e	2.cc
[2F	[2f	2c	.
.	.	.	4b-y
=65	=65	=65	=65
2F]	4f]	1d	4a
.	4e	.	4g
1G	4d	.	1b-y
.	4c	.	.
.	2d	2G	.
4F	2e	2g	4a
4E	.	.	4g
=66	=66	=66	=66
2F	2c	2c	2a
2BB-y	2.d	1f	2.b-y
1F	.	.	.
.	4c	.	4a
.	2A	2f	[2a
=67	=67	=67	=67
1G	1B-y	0d	2a]
.	.	.	2g
1D	2r	.	1a
.	2A	.	.
=68	=68	=68	=68
2r	2B-y	0r	0r
2E	1c	.	.
1F	.	.	.
.	2d	.	.
=69	=69	=69	=69
2G	2B-y	0r	0r
2.A	2.c	.	.
4G	4B-y	.	.
[2G	2G	.	.
=70	=70	=70	=70
2G]	1A	1r	1r
2F#i	.	.	.
1G	1G	1d	2r
.	.	.	[2g
=71	=71	=71	=71
0r	0r	2.e	4g]
.	.	.	4a
.	.	.	4b-y
.	.	4c	4cc
.	.	4d	4a
.	.	4e	4g
.	.	[2f	[2dd
=72	=72	=72	=72
0r	1r	4f]	4dd]
.	.	4e	4cc
.	.	2c	1cc
.	2r	1d	.
.	2G	.	2bni
=73	=73	=73	=73
1F	2A	1c	1cc
.	1c	.	.
1G	.	2r	1r
.	2B-y	[2d	.
=74	=74	=74	=74
1F	2.c	4d]	1a
.	.	4c	.
.	.	1f	.
.	8B-yL	.	.
.	8AJ	.	.
1r	1G	.	1b-y
.	.	2e	.
=75	=75	=75	=75
2r	1F	1f	1a
2F	.	.	.
1F	2r	2r	2r
.	2c	[2f	2a
=76	=76	=76	=76
1A	1c	4f]	1a
.	.	4e	.
.	.	1c	.
1G	1d	.	1b-y
.	.	2B-y	.
=77	=77	=77	=77
0F	1f	1.c	2.a
.	.	.	4b-y
.	2c	.	2cc
.	[2f	2A	[2dd
=78	=78	=78	=78
2r	2f]	2B-y	4dd]
.	.	.	4cc
2F	4e	2c	2.ff
.	4d	.	.
1F	2c	2F	.
.	.	.	4ee
.	[2d	2f	4dd
.	.	.	4cc
=79	=79	=79	=79
1G	4d]	2d	1b-y
.	4c	.	.
.	4B-y	2.e	.
.	4A	.	.
2E	2G	.	2cc
.	.	4d	.
[2F	[2A	[2d	[2dd
=80	=80	=80	=80
4F]	4A]	4d]	4dd]
4E	4G	4c	4ee
4D	1G	1c	1ff
4C	.	.	.
1D	.	.	.
.	2F	2Bni	4ee
.	.	.	4dd
=81	=81	=81	=81
1C	1G	0c	0ee
2r	2r	.	.
2C	2c	.	.
=82	=82	=82	=82
1C	1c	1r	0r
1G	1d	2r	.
.	.	2g	.
=83	=83	=83	=83
1C	1c	1g	2r
.	.	.	2cc
1F	1A	1a	1cc
=84	=84	=84	=84
1BB-y	1B-y	1f	1dd
1C	1G	1e	1cc
=85	=85	=85	=85
1D	2r	2.f	1a
.	1F	.	.
.	.	4e	.
2BB-y	.	4d	1b-y
.	.	4c	.
[2E-i	[2G	[2B-y	.
=86	=86	=86	=86
2E-]	2G]	4B-]	1g
.	.	4A	.
4D	4F	1c	.
4C	4E	.	.
1D	1F	.	2r
.	.	2Bni	2dd
=87	=87	=87	=87
1C	1G	0c	2.ee
.	.	.	4dd
2r	2F	.	2ff
2C	[2c	.	2ee
=88	=88	=88	=88
1D	2c]	2r	2.dd
.	2B-y	2f	.
.	.	.	4cc
2C	2c	2g	2ee
2BB-y	2d	2d	[2dd
=89	=89	=89	=89
1C	2e	1g	4dd]
.	.	.	4cc
.	2f	.	1cc
1G	1d	1g	.
.	.	.	2bni
=90	=90	=90	=90
1A	1c	1.e	1cc
2r	2r	.	2r
2F	2c	2f	2a
=91	=91	=91	=91
1F	1c	1f	1a
1G	1B-y	1e	1b-y
=92	=92	=92	=92
0F	0c	1f	1a
.	.	2r	2r
.	.	[2f	2a
=93	=93	=93	=93
0r	0r	2f]	2.cc
.	.	4e	.
.	.	4d	4dd
.	.	2c	4ee
.	.	.	4dd
.	.	2d	2ff
=94	=94	=94	=94
0r	0r	2A	2ee
.	.	1B-y	1dd
.	.	4A	4cc
.	.	4G	4b-y
=95	=95	=95	=95
0r	0r	2d	2a
.	.	4G	2b-y
.	.	4A	.
.	.	4B-y	4g
.	.	4c	4a
.	.	4d	4b-y
.	.	4e	4cc
=96	=96	=96	=96
0r	0r	4f	4dd
.	.	4g	4ee
.	.	2a	2ff
.	.	2g	2ee
.	.	[2f	[2dd
=97	=97	=97	=97
0r	0r	4f]	4dd]
.	.	4e	4cc
.	.	2c	1cc
.	.	1d	.
.	.	.	2bni
=98	=98	=98	=98
1r	0r	0c	0cc
1C	.	.	.
=99	=99	=99	=99
1G	1B-y	2r	1dd
.	.	2d	.
1A	1c	1a	1cc
=100	=100	=100	=100
1.B-y	1.d	1.g	1.b-y
2F	2c	2f	2a
=101	=101	=101	=101
1F	1c	1f	1a
1G	2r	2d	1b-y
.	2B-y	[2e	.
=102	=102	=102	=102
2E	2.c	2e]	2g
2.F	.	2c	2.a
.	4B-y	.	.
.	4A	2f	.
4E	4G	.	4g
2C	2c	2e	[2g
=103	=103	=103	=103
2D	2A	1d	4g]
.	.	.	4f
2BB-y	2B-y	.	1f
1C	1G	[1c	.
.	.	.	2e
=104	=104	=104	=104
0F	1F	1c]	0f
.	1r	1r	.
=105	=105	=105	=105
1r	0A	0c	1r
1F	.	.	1cc
=106	=106	=106	=106
1D	1A	1d	1ff
1D	1F	1B-y	1ff
=107	=107	=107	=107
0C	0G	0c	0ee
=108	=108	=108	=108
1F	1A	1c	1cc
1D	1F	1f	1dd
=109	=109	=109	=109
1.G	1.B-y	1.d	1.b-y
2G	2c	2e	2a
=	=	=	=
*M3/1	*M3/1	*M3/1	*M3/1
*met(3)	*met(3)	*met(3)	*met(3)
0F	0c	0f	0a
1r	1r	1r	1r
=110	=110	=110	=110
0F	0c	0f	0cc
1F	1c	1f	1cc
=111	=111	=111	=111
0D	0f	0a	0dd
1E	1e	1g	1cc
=112	=112	=112	=112
1F	1c	1f	1a
1BB-y	1.d	1d	1.b-y
[1F	.	[1f	.
.	2c	.	2a
=113	=113	=113	=113
1F]	1A	1f]	0a
0G	0B-y	0d	.
.	.	.	1g
=114	=114	=114	=114
0D	0A	1.d	0a
.	.	2e	.
1r	1F	1f	1r
=115	=115	=115	=115
0C	1.G	0e	0cc
.	2A	.	.
1G	1B-y	1d	1b-y
=116	=116	=116	=116
1.F	0c	0f	1.a
2E	.	.	2g
1G	1B-y	1e	1b-y
=117	=117	=117	=117
1F	0c	1f	1a
1C	.	1e	1.g
1D	1A	[1d	.
.	.	.	2f
=118	=118	=118	=118
1BB-y	1B-y	1d]	0f
0C	0G	0c	.
.	.	.	1e
=	=	=	=
*M2/1	*M2/1	*M2/1	*M2/1
*met(C|)	*met(C|)	*met(C|)	*met(C|)
1F	1F	0A	0f
2r	2r	.	.
2F	2c	.	.
=119	=119	=119	=119
1A	1c	2r	1r
.	.	2A	.
2G	2d	2B-y	2r
[2F	[2f	[2c	2cc
=120	=120	=120	=120
4F]	2f]	2c]	1cc
4E	.	.	.
2C	2e	4B-y	.
.	.	4A	.
1G	2d	4B-y	1dd
.	.	4G	.
.	2B-y	2g	.
=121	=121	=121	=121
4F	2.c	1a	1ff
4G	.	.	.
4A	.	.	.
4B-y	4d	.	.
2c	2e	2g	2ee
[2B-y	[2f	[2b-y	[2dd
=122	=122	=122	=122
4B-]	4f]	4b-]	2dd]
4c	4e	4a	.
2A	2c	2f	1cc
1G	1d	1g	.
.	.	.	2b-y
=123	=123	=123	=123
0A	1c	0e	0cc
.	1r	.	.
=124	=124	=124	=124
1F	1c	1f	1a
1G	1B-y	1d	1b-y
=125	=125	=125	=125
2C	2G	2e	2.cc
1F	2.A	2c	.
.	.	.	4b-y
.	.	2d	2a
.	4G	.	.
2E	2B-y	2e	[2g
=126	=126	=126	=126
2F	2.A	2c	4g]
.	.	.	4f
2D	.	2B-y	1f
.	8GL	.	.
.	8FJ	.	.
1C	1G	1c	.
.	.	.	2e
=127	=127	=127	=127
1F	0F	[0A	[0f
2r	.	.	.
2F	.	.	.
=128	=128	=128	=128
1F	2r	0A]	1f]
.	2f	.	.
1D	1f	.	1r
=129	=129	=129	=129
2.C	1e	0r	0r
4D	.	.	.
2E	1c	.	.
[2F	.	.	.
=130	=130	=130	=130
4F]	1f	0r	0r
4G	.	.	.
4A	.	.	.
4B-y	.	.	.
2c	2e	.	.
[2B-y	[2d	.	.
=131	=131	=131	=131
4B-]	4d]	0r	0r
4A	4c	.	.
4G	4B-y	.	.
4F	4A	.	.
2E	2G	.	.
2D	[2d	.	.
=132	=132	=132	=132
2F	2d]	0r	0r
2E	1c	.	.
1D	.	.	.
.	2Bni	.	.
=133	=133	=133	=133
1C	1c	2r	1r
.	.	2c	.
1r	1r	1d	2r
.	.	.	2f
=134	=134	=134	=134
0r	0r	1e	1g
.	.	2.f	1a
.	.	4e	.
=135	=135	=135	=135
0r	0r	2d	2b-y
.	.	2.c	1cc
.	.	8B-yL	.
.	.	8AJ	.
.	.	2G	2b-y
=136	=136	=136	=136
0r	0r	2F	2a
.	.	2B-y	2dd
.	.	2c	2cc
.	.	[2d	[2b-y
=137	=137	=137	=137
0r	0r	4d]	2b-]
.	.	4c	.
.	.	2A	1a
.	.	1B-y	.
.	.	.	2g
=138	=138	=138	=138
1.F	0r	0A	1a
.	.	.	2r
2G	.	.	2a
=139	=139	=139	=139
2.A	0r	1c	1a
4B-y	.	.	.
1G	.	1d	1b-y
=140	=140	=140	=140
2F	0r	1.f	2a
4D	.	.	4f
4E	.	.	4g
4F	.	.	4a
4G	.	.	4b-y
[2A	.	4e	[2cc
.	.	4d	.
=141	=141	=141	=141
4A]	0r	1c	4cc]
8GL	.	.	4dd
8FJ	.	.	.
2E	.	.	2ee
2D	.	1d	1ff
[2d	.	.	.
=142	=142	=142	=142
4d]	0r	1e	2.ee
4c	.	.	.
1c	.	.	.
.	.	.	4dd
.	.	1f	4cc
.	.	.	4b-y
2B-y	.	.	[2dd
=143	=143	=143	=143
2c	0r	2e	4dd]
.	.	.	4cc
2A	.	4d	1cc
.	.	4c	.
1G	.	1d	.
.	.	.	2bni
=144	=144	=144	=144
0A	0r	0c	0cc
=	=	=	=
*M3/1	*M3/1	*M3/1	*M3/1
*met(3)	*met(3)	*met(3)	*met(3)
1.F	1.c	1.f	1.a
2F	2c	2f	2a
1F	1c	1f	1a
=145	=145	=145	=145
1A	1c	1f	1cc
1B-y	1B-y	1d	1dd
1G	1B-y	1e	1b-y
=146	=146	=146	=146
0F	0c	0f	0a
1r	1r	1r	1r
=147	=147	=147	=147
1F	1f	1c	1a
1G	1d	1B-y	1b-y
1G	1d	1B-y	1b-y
=148	=148	=148	=148
0F	0f	0c	0a
1D	1f	1r	1dd
=149	=149	=149	=149
1A	1e	1c	1cc
1B-y	1.d	1d	1.b-y
[1F	.	[1f	.
.	2c	.	2a
=150	=150	=150	=150
1F]	1A	1f]	0a
0G	0B-y	0d	.
.	.	.	1g
=	=	=	=
*M2/1	*M2/1	*M2/1	*M2/1
*met(C|)	*met(C|)	*met(C|)	*met(C|)
0D	0A	0d	0a
=151	=151	=151	=151
1r	1r	1r	1r
1D	1A	[1f	1dd
=152	=152	=152	=152
1F	1A	2f]	1cc
.	.	2e	.
1G	1B-y	1d	1b-y
=153	=153	=153	=153
1A	1c	1c	1a
1B-y	[1d	[1f	1f
=154	=154	=154	=154
0G	2d]	2f]	1.b-y
.	2c	4e	.
.	.	4d	.
.	1B-y	1e	.
.	.	.	4a
.	.	.	4g
=155	=155	=155	=155
1F	1c	[0fl	1a
1BB-y	1d	.	1b-y
=	=	=	=
00F	00c	00f]	00a
=||	=||	=||	=||
*M2/1	*M2/1	*M2/1	*M2/1
*met(C|)	*met(C|)	*met(C|)	*met(C|)
!!Section: Secunda pars: Stupebant autem omnes
!!!OMD: Secunda pars: Stupebant autem omnes
0r	0r	0c	0r
=156	=156	=156	=156
0r	0r	1d	1r
.	.	2.c	[1cc
.	.	4d	.
=157	=157	=157	=157
0r	0r	4e	1cc]
.	.	4c	.
.	.	1f	.
.	.	.	1dd
.	.	4e	.
.	.	4d	.
=158	=158	=158	=158
0r	0r	2e	2.cc
.	.	1a	.
.	.	.	4dd
.	.	.	4ee
.	.	.	4cc
.	.	4g	[2ff
.	.	4f	.
=159	=159	=159	=159
0r	0r	1g	2ff]
.	.	.	2ee
.	.	2f	2.ff
.	.	2d	.
.	.	.	4ee
=160	=160	=160	=160
0r	0r	2.g	4dd
.	.	.	4cc
.	.	.	2dd
.	.	4f	.
.	.	4e	2g
.	.	4d	.
.	.	[2f	[2dd
=161	=161	=161	=161
0r	0r	4f]	4dd]
.	.	4e	4cc
.	.	2c	1cc
.	.	1d	.
.	.	.	2bni
=162	=162	=162	=162
0r	0r	1c	0cc
.	.	2r	.
.	.	2c	.
=163	=163	=163	=163
0r	0r	1d	1r
.	.	2.f	1cc
.	.	4e	.
=164	=164	=164	=164
0r	0r	4d	1dd
.	.	4c	.
.	.	1d	.
.	.	.	1ff
.	.	4c	.
.	.	4B-y	.
=165	=165	=165	=165
0r	0r	2c	2ee
.	.	2d	1ff
.	.	4B-y	.
.	.	4c	.
.	.	4d	4ee
.	.	4e	4dd
=166	=166	=166	=166
0r	0r	4f	4cc
.	.	4g	4b-y
.	.	2f	4a
.	.	.	4g
.	.	4F	2.a
.	.	4G	.
.	.	4A	.
.	.	4B-y	4g
=167	=167	=167	=167
0r	0r	4c	4a
.	.	4d	4b-y
.	.	2e	1cc
.	.	2f	.
.	.	2g	2b-y
=168	=168	=168	=168
0r	0r	4c	2a
.	.	4d	.
.	.	4e	4g
.	.	4f	4a
.	.	4d	4b-y
.	.	4c	4cc
.	.	[2d	[2a
=169	=169	=169	=169
0r	0r	4d]	2a]
.	.	4c	.
.	.	1f	4g
.	.	.	4f
.	.	.	1g
.	.	2e	.
=170	=170	=170	=170
1.F	1.c	[0f	[0f
2F	2c	.	.
=171	=171	=171	=171
0F	1c	0f]	0f]
.	[1f	.	.
=172	=172	=172	=172
1B-y	2f]	0r	0r
.	4e	.	.
.	4d	.	.
2A	2c	.	.
[2B-y	[2d	.	.
=173	=173	=173	=173
2B-]	2d]	0r	0r
4A	4c	.	.
4G	4B-y	.	.
2F	2A	.	.
2G	[2B-y	.	.
=174	=174	=174	=174
1E	2B-]	0r	0r
.	4A	.	.
.	4G	.	.
2.D	4B-y	.	.
.	4A	.	.
.	[2d	.	.
4E	.	.	.
=175	=175	=175	=175
4F	2d]	0r	0r
4G	.	.	.
2.A	2.c	.	.
4G	4B-y	.	.
[2G	2G	.	.
=176	=176	=176	=176
2G]	1A	0r	0r
2F#i	.	.	.
[1G	1G	.	.
=177	=177	=177	=177
1G]	2r	0r	0r
.	2G	.	.
2r	2A	.	.
2G	2B-y	.	.
=178	=178	=178	=178
2A	2c	0r	0r
2B-y	2d	.	.
[1c	2.e	.	.
.	4f	.	.
=179	=179	=179	=179
1c]	2g	0r	0r
.	2a	.	.
[1c	2g	.	.
.	[2a	.	.
=180	=180	=180	=180
2c]	2a]	0r	0r
2c	4g	.	.
.	4f	.	.
1c	2e	.	.
.	[2a	.	.
=181	=181	=181	=181
1B-y	2a]	0r	0r
.	2g	.	.
2A	2f	.	.
[2B-y	[2g	.	.
=182	=182	=182	=182
4B-]	4g]	0r	0r
4A	4f	.	.
4G	1f	.	.
4F	.	.	.
1G	.	.	.
.	2e	.	.
=183	=183	=183	=183
1F	1f	1f	1cc
1F	2r	[1f	[1cc
.	2c	.	.
=184	=184	=184	=184
1.F	1.c	2f]	2cc]
.	.	2f	2cc
.	.	1f	1cc
2F	2c	.	.
=185	=185	=185	=185
1F	1c	2r	1ff
.	.	2f	.
2C	1e	2g	1ee
[2c	.	2c	.
=186	=186	=186	=186
2c]	1f	4d	1dd
.	.	4e	.
2B-y	.	4f	.
.	.	4g	.
2c	2e	2a	2cc
[2B-y	[2f	[2b-y	[2dd
=187	=187	=187	=187
4B-]	4f]	4b-]	4dd]
4c	4e	4a	4cc
2A	2c	2f	1cc
1G	1d	1g	.
.	.	.	2b-y
=188	=188	=188	=188
1.A	1.c	1e	1.cc
.	.	2f	.
2G	[2d	[2g	2b-y
=189	=189	=189	=189
2A	4d]	4g]	2a
.	4c	4f	.
2B-y	1c	1f	2f
1G	.	.	1b-y
.	2B-y	2e	.
=190	=190	=190	=190
0F	0c	1f	0a
.	.	2r	.
.	.	2f	.
=191	=191	=191	=191
1E	2r	1g	1r
.	2.c	.	.
[1F	.	2.f	1cc
.	4B-y	.	.
.	[2A	.	.
.	.	4e	.
=192	=192	=192	=192
2F]	4A]	4d	1dd
.	4G	4c	.
2E	1G	1c	.
1D	.	.	1ff
.	2F	2Bni	.
=193	=193	=193	=193
0C	1G	0c	0ee
.	2r	.	.
.	2c	.	.
=194	=194	=194	=194
1F	2c	2r	2r
.	2c	2c	2cc
2F	[1A	2f	2cc
2F	.	2f	2cc
=195	=195	=195	=195
1D	2A]	1f	2.dd
.	4G	.	.
.	4F	.	4cc
2E	2G	2e	2b-y
[2F	2F	2c	2a
=196	=196	=196	=196
2F]	1G	2d	1b-y
2E	.	2e	.
2F	2F	2A	2a
2C	2c	[2c	[2g
=197	=197	=197	=197
1D	2.A	2c]	2g]
.	.	2Bni	1f
.	8GL	.	.
.	8FJ	.	.
1C	1G	1c	.
.	.	.	2e
=198	=198	=198	=198
1F	0F	0c	1f
1r	.	.	[1cc
=199	=199	=199	=199
1F	1A	2r	2cc]
.	.	2.c	2b-y
1A	1c	.	2a
.	.	4d	.
.	.	4e	2g
.	.	4f	.
=200	=200	=200	=200
1B-y	1d	4d	1f
.	.	4c	.
.	.	1f	.
1G	1B-y	.	1b-y
.	.	2e	.
=201	=201	=201	=201
1F	1c	2.f	1a
.	.	4e	.
2r	2F	2d	2r
2F	[2A	[2c	2a
=202	=202	=202	=202
1A	4A]	2c]	1cc
.	4B-y	.	.
.	1c	1f	.
2G	.	.	2b-y
2G	2B-y	2e	2b-y
=203	=203	=203	=203
1F	0c	1f	0a
2r	.	2r	.
[2F	.	[2f	.
=204	=204	=204	=204
2F]	2r	2f]	2r
2F	1c	2f	1a
2F	.	2f	.
2F	2c	2f	2a
=205	=205	=205	=205
1F	2c	1f	2a
.	2c	.	2a
2r	1c	2r	1a
2F	.	2f	.
=206	=206	=206	=206
1F	2r	2d	2r
.	2A	2d	2a
1E	2B-y	1e	2g
.	2B-y	.	2g
=207	=207	=207	=207
1F	1A	2d	2f
.	.	1c	1a
1D	1F	.	.
.	.	2Bni	4g
.	.	.	4f
=208	=208	=208	=208
1C	1G	0c	0e
2r	1r	.	.
2C	.	.	.
=209	=209	=209	=209
2F	2r	0r	0r
2E	2G	.	.
2F	2c	.	.
2G	2B-y	.	.
=210	=210	=210	=210
2A	2c	0r	0r
2B-y	2d	.	.
2G	2e	.	.
2F	2f	.	.
=211	=211	=211	=211
1A	2c	1r	1r
.	1f	.	.
1G	.	1B-y	1b-y
.	2e	.	.
=212	=212	=212	=212
1F	1f	2.c	2.a
.	.	4d	4b-y
1r	1r	2e	2cc
.	.	2f	[2dd
=213	=213	=213	=213
0r	0r	1c	4dd]
.	.	.	4cc
.	.	.	1cc
.	.	1d	.
.	.	.	2b-y
=214	=214	=214	=214
0r	1r	0c	1cc
.	[1c	.	2.g
.	.	.	8fL
.	.	.	8gJ
=215	=215	=215	=215
1r	1c]	1r	2a
.	.	.	1g
1D	1A	1d	.
.	.	.	2f#i
=216	=216	=216	=216
2.G	4G	2e	1g
.	4A	.	.
.	4B-y	2.d	.
4A	4c	.	.
2B-y	2d	.	2r
.	.	4c	.
2c	[2e	[2g	2a
=217	=217	=217	=217
1F	4e]	4g]	1a
.	4d	4f	.
.	1c	1f	.
1G	.	.	2b-y
.	2B-y	2e	2b-y
=218	=218	=218	=218
1F	2.c	2.f	2.a
.	4B-y	4e	4g
2r	4A	4d	4f
.	4G	4c	4e
2C	2c	[2c	[2g
=219	=219	=219	=219
1D	1F	2c]	4g]
.	.	.	4f
.	.	2Bni	1f
1C	1G	1c	.
.	.	.	2e
=220	=220	=220	=220
1r	1F	0A	1f
1c	2r	.	1r
.	[2F	.	.
=221	=221	=221	=221
1c	4F]	0r	0r
.	4G	.	.
.	4A	.	.
.	4B-y	.	.
1A	4c	.	.
.	4d	.	.
.	4e	.	.
.	4f	.	.
=222	=222	=222	=222
1B-y	4d	0r	0r
.	4c	.	.
.	1f	.	.
1G	.	.	.
.	2e	.	.
=223	=223	=223	=223
0F	0f	1r	2r
.	.	.	2.f
.	.	1f	.
.	.	.	4g
.	.	.	4a
.	.	.	4b-y
=224	=224	=224	=224
0r	0r	1f	2cc
.	.	.	1dd
.	.	1g	.
.	.	.	[2ee
=225	=225	=225	=225
0r	0r	1e	4ee]
.	.	.	4dd
.	.	.	4cc
.	.	.	4b-y
.	.	1f	4a
.	.	.	4g
.	.	.	[2cc
=226	=226	=226	=226
0r	0r	1d	2cc]
.	.	.	2bni
.	.	1c	1cc
=227	=227	=227	=227
1F	1f	2r	2r
.	.	2c	2cc
2F	2f	2f	2cc
2F	2f	2f	2cc
=228	=228	=228	=228
1B-y	2.d	2.f	1dd
.	4e	4g	.
2F	2f	2a	2cc
[2G	[2d	[2g	[2b-y
=229	=229	=229	=229
4G]	4d]	4g]	2b-]
4A	4c	4e	.
2F	2A	2f	1a
1G	1B-y	1d	.
.	.	.	2g
=	=	=	=
*M3/1	*M3/1	*M3/1	*M3/1
*met(3)	*met(3)	*met(3)	*met(3)
0D	0A	0d	0a
1r	1r	1r	1r
=230	=230	=230	=230
1.D	1.A	1.f	1.a
2D	2A	2f	2a
1D	1A	1f	1a
=231	=231	=231	=231
1G	1B-y	1e	1g
1F	1c	1f	1a
1G	1B-y	1d	1dd
=232	=232	=232	=232
0A	0c	1f	0cc
.	.	1e	.
2A	2c	1f	2cc
2A	2c	.	2cc
=233	=233	=233	=233
0G	0d	0g	0b-y
1G	1d	1g	1b-y
=234	=234	=234	=234
1.A	0c	0e	1.cc
2G	.	.	2b-y
1B-y	1B-y	1d	1dd
=235	=235	=235	=235
1A	1.c	0f	1cc
0G	.	.	0b-y
.	4B-y	.	.
.	4A	.	.
.	1B-y	1e	.
=236	=236	=236	=236
0F	0c	0.f	0.a
1r	1c	.	.
=237	=237	=237	=237
1F	1d	1%3r	1%3r
1G	1e	.	.
1A	1c	.	.
=238	=238	=238	=238
1F	0c	1r	1cc
1r	.	1f	1dd
1r	1r	1g	1ee
=239	=239	=239	=239
1%3r	1%3r	1a	0cc
.	.	0f	.
.	.	.	1r
=240	=240	=240	=240
0F	0c	0f	0a
1G	1B-y	1e	1g
=241	=241	=241	=241
1F	1c	1f	1a
0B-y	1.d	1.g	1.b-y
.	2c	2f	2a
=242	=242	=242	=242
1F	0c	0f	0a
0G	.	.	.
.	1B-y	1e	1g
=243	=243	=243	=243
0F	0c	0f	0a
1F	1d	1f	1a
=244	=244	=244	=244
1C	1e	1g	1cc
1F	1f	1a	1.dd
1G	1d	1g	.
.	.	.	2cc
=245	=245	=245	=245
1A	1c	1f	0cc
0G	0d	0g	.
.	.	.	1bni
=	=	=	=
*M2/1	*M2/1	*M2/1	*M2/1
*met(C|)	*met(C|)	*met(C|)	*met(C|)
0C	[0c	1e	0cc
.	.	[1g	.
=246	=246	=246	=246
1.c	0c]	2g]	1r
.	.	2f	.
.	.	2e	[1cc
2B-y	.	2d	.
=247	=247	=247	=247
2A	1r	0c	2cc]
2G	.	.	2b-y
[1F	[1f	.	2a
.	.	.	2g
=248	=248	=248	=248
1F]	2f]	2.d	1f
.	2e	.	.
.	.	4c	.
[1G	2d	2B-y	[1b-y
.	2c	2A	.
=249	=249	=249	=249
2G]	0B-y	1G	2b-]
2F	.	.	2a
2E	.	[1g	2g
2D	.	.	2f
=250	=250	=250	=250
1C	0c	1g]	1e
[1F	.	[1f	[1a
=251	=251	=251	=251
1F]	1A	1f]	1a]
1BB-y	1B-y	1d	1f
=252	=252	=252	=252
1C	1G	1e	2r
.	.	.	1cc
1D	1F	1f	.
.	.	.	2bni
=253	=253	=253	=253
1C	1G	1e	0cc
[1F	[1A	1c	.
=254	=254	=254	=254
1F]	2A]	1f	1dd
.	2G	.	.
1C	[1G	2e	1ee
.	.	[2c	.
=255	=255	=255	=255
0D	1G]	2c]	1.ff
.	.	4Bni	.
.	.	4A	.
.	1F	1Bni	.
.	.	.	4ee
.	.	.	4dd
=256	=256	=256	=256
[0C	[0G	[0cl	[0ee
=257	=257	=257	=257
0C;]	0G;]	0c;_	0ee;]
=258	=258	=258	=258
00Fl	00Fl	00c]	00ffl
==	==	==	==
*-	*-	*-	*-
!!!system-decoration: [*]
!!!RDF**kern: i = editorial accidental
!!!RDF**kern: l = terminal long
!!!ENC: Benjamin Ory
!!!END: 2022/4/19
!!!EED: Benjamin Ory
!!!EEV: 2022/04/19
!!!YEC: Copyright 2022 Benjamin Ory, All Rights Reserved
!!!ONB: Translated from MusicXML on 2022/04/19
